!!!OTL: KunÅzi
!!!ARE: Asia, China,ˇShaanxi Mianxian
!! I, 69
!!!SCT: C1403
!!!YEM: Copyright 1995, estate of Helmut Schaffrath.
**kern
*ICvox
*Ivox
*M2/4
*k[]
*C:
{8ee
8ee
4dd
=1
8.cc
16cc
4a}
=2
{16ee
8cc
16cc
8cc
8ee
=3
8cc
8cc
4a}
=4
{16cc
8a
16a
8cc
8cc
=5
8ee
8ee
4dd
=6
8.cc
16cc
4a}
=7
{16ee
8cc
16cc
8cc
8ee
=8
8cc
8ee
8cc
8cc
=9
8a
8a
4cc
=10
8cc
8a
4g}
==
!!!AGN: Xiaodiao. FunÅ ku
!!!ONB: ESAC (Essen Associative Code) Database: HUANG
!!!AMT: simple duple
!!!AIN: vox
!!!EED: Helmut Schaffrath
!!!EEV: 1.0
*-
!!!OTL: Shang guangxi
!!!ARE: Asia, China,ˇHunan, Shaodong
!! I, 539
!!!SCT: C1466
!!!YEM: Copyright 1995, estate of Helmut Schaffrath.
**kern
*ICvox
*Ivox
*M2/4
*k[]
*C:
{8.ee
16cc
16ee
16gg
8cc
=1
8a
16a
16a
4a
=2
8gg
16ee
16gg
8.ee
16gg
=3
8.cc
16ee
4cc}
=4
{8cc
16a
16a
8a
16ee
16gg
=5
8.cc
16a
4a
=6
8ee
8a
16cc
16ee
8cc
=7
16cc
16a
4.a
=8
8e
16e
16e
4e}
==
!!!AGN: Shange. Jiaofu xinglu chang
!!!ONB: ESAC (Essen Associative Code) Database: HUANG
!!!AMT: simple duple
!!!AIN: vox
!!!EED: Helmut Schaffrath
!!!EEV: 1.0
*-
